public/assets/images/components/thumbnail-input.svg

<svg xmlns="http://www.w3.org/2000/svg" width="560" height="315" fill="none"><g clip-path="url(#a)"><path fill="#fff" d="M560 0H0v315h560V0Z"/><path fill="#fff" d="M80 97a8 8 0 0 1 8-8h384a8 8 0 0 1 8 8v48H80V97Z"/><path stroke="#16191F" stroke-opacity=".18" d="M80.5 97a7.5 7.5 0 0 1 7.5-7.5h384a7.5 7.5 0 0 1 7.5 7.5v47.5h-399V97Z"/><path fill="#16191F" fill-opacity=".48" d="M93.44 110.392h1.568V123H93.44v-12.608ZM99.693 123H98.27v-9.424h1.424v1.248c.72-1.088 1.92-1.504 2.96-1.504 1.472 0 2.352.784 2.704 1.504.352.72.416 1.424.416 2.864V123h-1.44v-5.312c0-1.472 0-3.056-2.032-3.056-.448 0-2.608.128-2.608 3.056V123Zm10.522-9.424v1.264c.8-1.008 1.808-1.52 3.088-1.52 2.4 0 4.208 1.952 4.208 4.976 0 3.008-1.808 4.96-4.208 4.96-1.28 0-2.288-.512-3.088-1.52v5.52h-1.424v-13.68h1.424Zm-.064 4.72c0 2.912 1.76 3.648 2.944 3.648 2.288 0 2.992-2.032 2.992-3.648s-.704-3.648-2.992-3.648c-1.184 0-2.944.72-2.944 3.648Zm15.976-4.72h1.44V123h-1.44v-1.248c-.992 1.488-2.656 1.504-2.96 1.504-1.472 0-2.336-.784-2.704-1.504-.352-.72-.4-1.376-.4-2.864v-5.312h1.424v5.312c0 1.488 0 3.056 2.032 3.056.448 0 2.608-.112 2.608-3.056v-5.312Zm4.746 0v-2.704h1.424v2.704h2.864v1.328h-2.864v5.376c0 .88 0 1.664 1.456 1.664.208 0 .576-.016 1.28-.112v1.312a10.08 10.08 0 0 1-1.488.112c-2.608 0-2.672-1.568-2.672-2.976v-5.376h-1.216v-1.328h1.216Z"/><path fill="#16191F" fill-opacity=".18" d="M479 142H81v2h398v-2Z"/><path fill="#fff" d="M80 177a8 8 0 0 1 8-8h384a8 8 0 0 1 8 8v48H80v-48Z"/><path stroke="#16191F" stroke-opacity=".18" d="M80.5 177a7.5 7.5 0 0 1 7.5-7.5h384a7.5 7.5 0 0 1 7.5 7.5v47.5h-399V177Z"/><path fill="#16191F" fill-opacity=".48" d="M93.44 190.392h1.568V203H93.44v-12.608ZM99.693 203H98.27v-9.424h1.424v1.248c.72-1.088 1.92-1.504 2.96-1.504 1.472 0 2.352.784 2.704 1.504.352.72.416 1.424.416 2.864V203h-1.44v-5.312c0-1.472 0-3.056-2.032-3.056-.448 0-2.608.128-2.608 3.056V203Zm10.522-9.424v1.264c.8-1.008 1.808-1.52 3.088-1.52 2.4 0 4.208 1.952 4.208 4.976 0 3.008-1.808 4.96-4.208 4.96-1.28 0-2.288-.512-3.088-1.52v5.52h-1.424v-13.68h1.424Zm-.064 4.72c0 2.912 1.76 3.648 2.944 3.648 2.288 0 2.992-2.032 2.992-3.648s-.704-3.648-2.992-3.648c-1.184 0-2.944.72-2.944 3.648Zm15.976-4.72h1.44V203h-1.44v-1.248c-.992 1.488-2.656 1.504-2.96 1.504-1.472 0-2.336-.784-2.704-1.504-.352-.72-.4-1.376-.4-2.864v-5.312h1.424v5.312c0 1.488 0 3.056 2.032 3.056.448 0 2.608-.112 2.608-3.056v-5.312Zm4.746 0v-2.704h1.424v2.704h2.864v1.328h-2.864v5.376c0 .88 0 1.664 1.456 1.664.208 0 .576-.016 1.28-.112v1.312a10.08 10.08 0 0 1-1.488.112c-2.608 0-2.672-1.568-2.672-2.976v-5.376h-1.216v-1.328h1.216Z"/><path fill="#16191F" fill-opacity=".64" fill-rule="evenodd" d="M458 192.833a4.167 4.167 0 1 0 0 8.335 4.167 4.167 0 0 0 0-8.335ZM455.5 197a2.5 2.5 0 1 1 5 0 2.5 2.5 0 0 1-5 0Z" clip-rule="evenodd"/><path fill="#16191F" fill-opacity=".64" fill-rule="evenodd" d="M458 190.337a9.663 9.663 0 0 0-9.114 6.384.823.823 0 0 0 0 .558 9.663 9.663 0 0 0 9.114 6.384 9.663 9.663 0 0 0 9.114-6.384.823.823 0 0 0 0-.558 9.663 9.663 0 0 0-9.114-6.384Zm0 11.667a8.008 8.008 0 0 1-7.447-5.004 8.008 8.008 0 0 1 7.447-5.004 8.008 8.008 0 0 1 7.447 5.004 8.008 8.008 0 0 1-7.447 5.004Z" clip-rule="evenodd"/><path fill="#16191F" fill-opacity=".18" d="M479 222H81v2h398v-2Z"/></g><defs><clipPath id="a"><path fill="#fff" d="M0 0h560v315H0z"/></clipPath></defs></svg>

<svg width="560" height="315" viewBox="0 0 560 315" fill="none" xmlns="http://www.w3.org/2000/svg">
<rect width="560" height="315" fill="white"/>
<path d="M80 97C80 92.5817 83.5817 89 88 89H472C476.418 89 480 92.5817 480 97V145H80V97Z" fill="#16191F" fill-opacity="0.04"/>
<path d="M93.44 110.392H95.008V123H93.44V110.392ZM99.6931 123H98.2691V113.576H99.6931V114.824C100.413 113.736 101.613 113.32 102.653 113.32C104.125 113.32 105.005 114.104 105.357 114.824C105.709 115.544 105.773 116.248 105.773 117.688V123H104.333V117.688C104.333 116.216 104.333 114.632 102.301 114.632C101.853 114.632 99.6931 114.76 99.6931 117.688V123ZM110.215 113.576V114.84C111.015 113.832 112.023 113.32 113.303 113.32C115.703 113.32 117.511 115.272 117.511 118.296C117.511 121.304 115.703 123.256 113.303 123.256C112.023 123.256 111.015 122.744 110.215 121.736V127.256H108.791V113.576H110.215ZM110.151 118.296C110.151 121.208 111.911 121.944 113.095 121.944C115.383 121.944 116.087 119.912 116.087 118.296C116.087 116.68 115.383 114.648 113.095 114.648C111.911 114.648 110.151 115.368 110.151 118.296ZM126.127 113.576H127.567V123H126.127V121.752C125.135 123.24 123.471 123.256 123.167 123.256C121.695 123.256 120.831 122.472 120.463 121.752C120.111 121.032 120.063 120.376 120.063 118.888V113.576H121.487V118.888C121.487 120.376 121.487 121.944 123.519 121.944C123.967 121.944 126.127 121.832 126.127 118.888V113.576ZM130.873 113.576V110.872H132.297V113.576H135.161V114.904H132.297V120.28C132.297 121.16 132.297 121.944 133.753 121.944C133.961 121.944 134.329 121.928 135.033 121.832V123.144C134.697 123.192 134.201 123.256 133.545 123.256C130.937 123.256 130.873 121.688 130.873 120.28V114.904H129.657V113.576H130.873Z" fill="#16191F" fill-opacity="0.48"/>
<path d="M480 143H80V147H480V143Z" fill="#16191F" fill-opacity="0.18" mask="url(#path-2-inside-1_2139_5064)"/>
<path d="M80 177C80 172.582 83.5817 169 88 169H472C476.418 169 480 172.582 480 177V225H80V177Z" fill="#16191F" fill-opacity="0.04"/>
<path d="M93.44 190.392H95.008V203H93.44V190.392ZM99.6931 203H98.2691V193.576H99.6931V194.824C100.413 193.736 101.613 193.32 102.653 193.32C104.125 193.32 105.005 194.104 105.357 194.824C105.709 195.544 105.773 196.248 105.773 197.688V203H104.333V197.688C104.333 196.216 104.333 194.632 102.301 194.632C101.853 194.632 99.6931 194.76 99.6931 197.688V203ZM110.215 193.576V194.84C111.015 193.832 112.023 193.32 113.303 193.32C115.703 193.32 117.511 195.272 117.511 198.296C117.511 201.304 115.703 203.256 113.303 203.256C112.023 203.256 111.015 202.744 110.215 201.736V207.256H108.791V193.576H110.215ZM110.151 198.296C110.151 201.208 111.911 201.944 113.095 201.944C115.383 201.944 116.087 199.912 116.087 198.296C116.087 196.68 115.383 194.648 113.095 194.648C111.911 194.648 110.151 195.368 110.151 198.296ZM126.127 193.576H127.567V203H126.127V201.752C125.135 203.24 123.471 203.256 123.167 203.256C121.695 203.256 120.831 202.472 120.463 201.752C120.111 201.032 120.063 200.376 120.063 198.888V193.576H121.487V198.888C121.487 200.376 121.487 201.944 123.519 201.944C123.967 201.944 126.127 201.832 126.127 198.888V193.576ZM130.873 193.576V190.872H132.297V193.576H135.161V194.904H132.297V200.28C132.297 201.16 132.297 201.944 133.753 201.944C133.961 201.944 134.329 201.928 135.033 201.832V203.144C134.697 203.192 134.201 203.256 133.545 203.256C130.937 203.256 130.873 201.688 130.873 200.28V194.904H129.657V193.576H130.873Z" fill="#16191F" fill-opacity="0.48"/>
<path fill-rule="evenodd" clip-rule="evenodd" d="M458 192.833C455.699 192.833 453.833 194.699 453.833 197C453.833 199.301 455.699 201.167 458 201.167C460.301 201.167 462.167 199.301 462.167 197C462.167 194.699 460.301 192.833 458 192.833ZM455.5 197C455.5 195.619 456.619 194.5 458 194.5C459.381 194.5 460.5 195.619 460.5 197C460.5 198.381 459.381 199.5 458 199.5C456.619 199.5 455.5 198.381 455.5 197Z" fill="#16191F" fill-opacity="0.64"/>
<path fill-rule="evenodd" clip-rule="evenodd" d="M458 190.337C453.795 190.337 450.214 192.999 448.886 196.721C448.821 196.902 448.821 197.099 448.886 197.279C450.214 201.001 453.795 203.663 458 203.663C462.205 203.663 465.786 201.001 467.114 197.279C467.179 197.099 467.179 196.902 467.114 196.721C465.786 192.999 462.205 190.337 458 190.337ZM458 202.004C454.616 202.004 451.726 199.929 450.553 197C451.726 194.071 454.616 191.996 458 191.996C461.384 191.996 464.274 194.071 465.447 197C464.274 199.929 461.384 202.004 458 202.004Z" fill="#16191F" fill-opacity="0.64"/>
<path d="M480 223H80V227H480V223Z" fill="#16191F" fill-opacity="0.18" mask="url(#path-6-inside-2_2139_5064)"/>
</svg>
